X: 4002
T: THOMSON'S GOT A DIRK
R: Reel.
%R: reel
B: James Kerr "Merry Melodies" v.3 p.04 #2
Z: 2016 John Chambers <jc:trillian.mit.edu>
M: C|
L: 1/8
K: A
ud |\
vc>vA (c/d/e) c2 (Ac) | B=GdG B2(G>d) |\
c>A (c/d/e) c2 (Ac) | B=GdB A2-A ::\
g |\
aege aeef |
=gedB gddg |\
[1 ae^ge aeed | cABG A2-A :|\
[2 afge fdec | cABG A2-A |]

%%sep 1 1 500
%%sep 1 1 500

